cc-by-sa/knowledge/modules/using_type/lessons/vertical_spacing_and_line_height_in_design_systems/images/equal-spacing.svg

<svg xmlns="http://www.w3.org/2000/svg" width="1920" height="1080" fill="none"><path fill="#D2E3FC" d="M285 433h607v215H285z"/><path fill="#FF6D7F" d="M441.8 631h-53.44l-6.08-31.36h-37.76L338.44 631h-50.88l36.48-198.72h81.28L441.8 631Zm-65.6-68.8L365 491.16h-2.24l-11.2 71.04h24.64Zm-38.72-165.12c0-7.467 2.453-13.333 7.36-17.6 4.907-4.48 11.307-6.72 19.2-6.72 7.893 0 14.187 2.133 18.88 6.4 4.693 4.053 7.04 9.813 7.04 17.28 0 7.467-2.347 13.44-7.04 17.92-4.693 4.267-10.987 6.4-18.88 6.4-7.893 0-14.293-2.133-19.2-6.4s-7.36-10.027-7.36-17.28Zm32.96-.64c0-5.973-2.24-8.96-6.72-8.96-4.48 0-6.72 2.987-6.72 8.96 0 5.973 2.24 8.96 6.72 8.96 4.48 0 6.72-2.987 6.72-8.96Zm199.055 121.28-1.6 66.24c0 4.053.96 6.827 2.88 8.32 2.133 1.28 5.653 1.92 10.56 1.92l-4.8 38.72c-12.373.853-19.2 1.28-20.48 1.28-15.787 0-25.813-5.44-30.08-16.32h-1.6c-7.893 10.88-20.053 16.32-36.48 16.32-12.587 0-22.293-4.053-29.12-12.16-6.613-8.107-9.92-19.2-9.92-33.28 0-17.707 5.44-29.973 16.32-36.8 11.093-6.827 28.48-11.307 52.16-13.44v-7.68c0-5.973-2.987-8.96-8.96-8.96-10.24 0-26.24 3.093-48 9.28l-8-46.72c27.307-7.04 50.027-10.56 68.16-10.56 18.133 0 30.827 3.52 38.08 10.56 7.253 7.04 10.88 18.133 10.88 33.28Zm-61.76 79.04c7.893 0 11.84-4.16 11.84-12.48V568.6c-7.893 1.067-13.547 2.773-16.96 5.12-3.2 2.133-4.8 5.867-4.8 11.2 0 7.893 3.307 11.84 9.92 11.84Zm229.935-23.04c0 38.187-20.48 57.28-61.44 57.28h-78.4V432.28h76.8c20.267 0 35.307 4.16 45.12 12.48 9.813 8.107 14.72 21.12 14.72 39.04 0 17.92-7.36 31.573-22.08 40.96v1.92c16.853 6.613 25.28 22.293 25.28 47.04Zm-74.24 21.76c6.4 0 10.667-1.387 12.8-4.16 2.347-2.987 3.52-8.96 3.52-17.92 0-9.173-1.173-15.573-3.52-19.2-2.347-3.84-6.613-5.76-12.8-5.76h-10.24v47.04h10.24Zm.32-78.08c4.907 0 8.32-1.493 10.24-4.48s2.88-8.213 2.88-15.68c0-7.68-1.067-13.013-3.2-16-1.92-3.2-5.333-4.8-10.24-4.8h-10.24v40.96h10.56Zm169.958-43.2c20.053 0 33.386 5.867 40 17.6 6.613 11.52 9.92 31.467 9.92 59.84 0 28.16-3.52 48.96-10.56 62.4-7.04 13.44-20.8 20.16-41.28 20.16-16 0-27.2-4.16-33.6-12.48h-1.28l-3.2 9.28h-41.92V425.88h53.44v55.36h1.28c7.04-4.693 16.106-7.04 27.2-7.04Zm-5.76 108.8c.853-3.84 1.386-7.573 1.6-11.2.213-3.627.32-10.453.32-20.48 0-10.24-.747-18.027-2.24-23.36-1.494-5.547-4.587-8.32-9.28-8.32-4.48 0-8.96 1.28-13.44 3.84v66.24c4.053 1.92 7.893 2.88 11.52 2.88 3.84 0 6.506-.64 7.999-1.92 1.707-1.493 2.881-4.053 3.521-7.68Z"/><path stroke="#FF6D7F" stroke-width="2" d="M286 381h605v318H286z"/><path fill="#D2E3FC" d="M978 450h657v182H978z"/><path fill="#1A73E8" d="M1025.14 632h-41.192l62.762-181.818h49.54L1158.93 632h-41.19l-45.55-140.27h-1.42L1025.14 632Zm-2.57-71.467h97.3v30.007h-97.3v-30.007Zm48.91-120.827c-7.57 0-14.02-2.604-19.35-7.813-5.33-5.267-7.99-11.57-7.99-18.909 0-4.913 1.21-9.381 3.64-13.406 2.49-4.084 5.8-7.309 9.94-9.677 4.15-2.426 8.73-3.64 13.76-3.64 5.03 0 9.62 1.214 13.76 3.64 4.15 2.368 7.43 5.593 9.86 9.677 2.48 4.025 3.73 8.493 3.73 13.406 0 4.912-1.25 9.41-3.73 13.494-2.43 4.025-5.71 7.25-9.86 9.677-4.14 2.367-8.73 3.551-13.76 3.551Zm0-15.181c3.32 0 6.13-1.125 8.44-3.374 2.31-2.249 3.46-5.001 3.46-8.256 0-3.196-1.15-5.919-3.46-8.168-2.31-2.249-5.12-3.373-8.44-3.373-3.31.059-6.15 1.213-8.52 3.462-2.31 2.249-3.46 4.972-3.46 8.168 0 3.196 1.15 5.948 3.46 8.256 2.31 2.249 5.15 3.344 8.52 3.285Zm147.51 210.05c-8.7 0-16.45-1.51-23.26-4.528-6.81-3.078-12.19-7.605-16.16-13.583-3.9-6.037-5.86-13.554-5.86-22.55 0-7.576 1.39-13.938 4.17-19.087 2.79-5.149 6.57-9.292 11.37-12.429 4.79-3.137 10.24-5.505 16.33-7.103 6.16-1.598 12.61-2.722 19.36-3.373 7.93-.829 14.32-1.598 19.17-2.308 4.86-.77 8.38-1.894 10.57-3.374 2.19-1.48 3.28-3.669 3.28-6.57v-.532c0-5.623-1.77-9.973-5.32-13.051-3.5-3.077-8.47-4.616-14.92-4.616-6.81 0-12.22 1.509-16.25 4.528-4.02 2.959-6.68 6.688-7.99 11.186l-34.97-2.841c1.77-8.286 5.26-15.448 10.47-21.485 5.21-6.096 11.93-10.771 20.15-14.027 8.29-3.314 17.88-4.971 28.77-4.971 7.57 0 14.82.888 21.75 2.663 6.98 1.776 13.17 4.528 18.55 8.257 5.45 3.728 9.74 8.522 12.88 14.382 3.13 5.8 4.7 12.754 4.7 20.863V632h-35.86v-18.91h-1.07c-2.19 4.262-5.12 8.02-8.79 11.275-3.67 3.196-8.08 5.711-13.23 7.546-5.15 1.776-11.09 2.664-17.84 2.664Zm10.83-26.101c5.56 0 10.48-1.095 14.74-3.285 4.26-2.249 7.6-5.268 10.03-9.055 2.43-3.788 3.64-8.079 3.64-12.873V568.79c-1.18.769-2.81 1.479-4.88 2.13a89.126 89.126 0 0 1-6.84 1.687c-2.54.474-5.09.918-7.63 1.332-2.55.355-4.86.681-6.93.976-4.44.652-8.31 1.687-11.63 3.108-3.31 1.42-5.89 3.344-7.72 5.77-1.84 2.368-2.76 5.327-2.76 8.878 0 5.149 1.87 9.085 5.6 11.808 3.79 2.663 8.58 3.995 14.38 3.995ZM1325.83 632V450.182h72.8c13.38 0 24.53 1.983 33.47 5.948 8.94 3.965 15.66 9.47 20.15 16.513 4.5 6.984 6.75 15.033 6.75 24.147 0 7.103-1.42 13.347-4.26 18.733-2.84 5.326-6.75 9.706-11.72 13.139-4.91 3.374-10.53 5.771-16.87 7.191v1.776c6.93.295 13.41 2.249 19.45 5.859 6.09 3.61 11.03 8.671 14.82 15.181 3.79 6.451 5.68 14.145 5.68 23.082 0 9.648-2.39 18.259-7.19 25.835-4.73 7.517-11.75 13.465-21.04 17.844-9.29 4.38-20.74 6.57-34.36 6.57h-77.68Zm38.44-31.428h31.34c10.72 0 18.53-2.041 23.44-6.125 4.91-4.143 7.37-9.648 7.37-16.513 0-5.031-1.21-9.47-3.64-13.317-2.43-3.847-5.89-6.865-10.39-9.055-4.44-2.19-9.73-3.285-15.89-3.285h-32.23v48.295Zm0-74.307h28.5c5.27 0 9.95-.917 14.03-2.752 4.14-1.894 7.4-4.558 9.77-7.99 2.42-3.433 3.64-7.546 3.64-12.34 0-6.57-2.34-11.867-7.02-15.892-4.61-4.024-11.18-6.037-19.71-6.037h-29.21v45.011ZM1491.12 632V450.182h37.82v68.359h1.15c1.66-3.669 4.05-7.398 7.19-11.186 3.2-3.847 7.34-7.043 12.43-9.588 5.15-2.604 11.54-3.906 19.18-3.906 9.94 0 19.11 2.604 27.52 7.812 8.4 5.149 15.12 12.932 20.15 23.349 5.03 10.357 7.55 23.349 7.55 38.974 0 15.21-2.46 28.054-7.37 38.53-4.85 10.416-11.48 18.318-19.89 23.703-8.34 5.327-17.69 7.99-28.05 7.99-7.34 0-13.58-1.213-18.73-3.639-5.09-2.427-9.27-5.475-12.52-9.145-3.26-3.728-5.74-7.487-7.46-11.274h-1.69V632h-37.28Zm37.02-68.182c0 8.109 1.12 15.181 3.37 21.218 2.25 6.037 5.51 10.742 9.77 14.116 4.26 3.314 9.44 4.972 15.53 4.972 6.16 0 11.37-1.687 15.63-5.061 4.26-3.433 7.49-8.167 9.67-14.204 2.25-6.096 3.38-13.11 3.38-21.041 0-7.872-1.1-14.796-3.29-20.774-2.19-5.978-5.41-10.653-9.67-14.027-4.26-3.374-9.5-5.06-15.72-5.06-6.15 0-11.36 1.627-15.62 4.882-4.2 3.256-7.43 7.872-9.68 13.85s-3.37 13.021-3.37 21.129Z"/><path stroke="#1A73E8" stroke-width="2" d="M979 417h655v248H979z"/></svg>

<svg width="1920" height="1080" viewBox="0 0 1920 1080" fill="none" xmlns="http://www.w3.org/2000/svg">
<rect width="607" height="215" transform="translate(285 433)" fill="#D2E3FC"/>
<path d="M441.8 631H388.36L382.28 599.64H344.52L338.44 631H287.56L324.04 432.28H405.32L441.8 631ZM376.2 562.2L365 491.16H362.76L351.56 562.2H376.2ZM337.48 397.08C337.48 389.613 339.933 383.747 344.84 379.48C349.747 375 356.147 372.76 364.04 372.76C371.933 372.76 378.227 374.893 382.92 379.16C387.613 383.213 389.96 388.973 389.96 396.44C389.96 403.907 387.613 409.88 382.92 414.36C378.227 418.627 371.933 420.76 364.04 420.76C356.147 420.76 349.747 418.627 344.84 414.36C339.933 410.093 337.48 404.333 337.48 397.08ZM370.44 396.44C370.44 390.467 368.2 387.48 363.72 387.48C359.24 387.48 357 390.467 357 396.44C357 402.413 359.24 405.4 363.72 405.4C368.2 405.4 370.44 402.413 370.44 396.44ZM569.495 517.72L567.895 583.96C567.895 588.013 568.855 590.787 570.775 592.28C572.908 593.56 576.428 594.2 581.335 594.2L576.535 632.92C564.162 633.773 557.335 634.2 556.055 634.2C540.268 634.2 530.242 628.76 525.975 617.88H524.375C516.482 628.76 504.322 634.2 487.895 634.2C475.308 634.2 465.602 630.147 458.775 622.04C452.162 613.933 448.855 602.84 448.855 588.76C448.855 571.053 454.295 558.787 465.175 551.96C476.268 545.133 493.655 540.653 517.335 538.52V530.84C517.335 524.867 514.348 521.88 508.375 521.88C498.135 521.88 482.135 524.973 460.375 531.16L452.375 484.44C479.682 477.4 502.402 473.88 520.535 473.88C538.668 473.88 551.362 477.4 558.615 484.44C565.868 491.48 569.495 502.573 569.495 517.72ZM507.735 596.76C515.628 596.76 519.575 592.6 519.575 584.28V568.6C511.682 569.667 506.028 571.373 502.615 573.72C499.415 575.853 497.815 579.587 497.815 584.92C497.815 592.813 501.122 596.76 507.735 596.76ZM737.67 573.72C737.67 611.907 717.19 631 676.23 631H597.83V432.28H674.63C694.897 432.28 709.937 436.44 719.75 444.76C729.563 452.867 734.47 465.88 734.47 483.8C734.47 501.72 727.11 515.373 712.39 524.76V526.68C729.243 533.293 737.67 548.973 737.67 573.72ZM663.43 595.48C669.83 595.48 674.097 594.093 676.23 591.32C678.577 588.333 679.75 582.36 679.75 573.4C679.75 564.227 678.577 557.827 676.23 554.2C673.883 550.36 669.617 548.44 663.43 548.44H653.19V595.48H663.43ZM663.75 517.4C668.657 517.4 672.07 515.907 673.99 512.92C675.91 509.933 676.87 504.707 676.87 497.24C676.87 489.56 675.803 484.227 673.67 481.24C671.75 478.04 668.337 476.44 663.43 476.44H653.19V517.4H663.75ZM833.708 474.2C853.761 474.2 867.094 480.067 873.708 491.8C880.321 503.32 883.628 523.267 883.628 551.64C883.628 579.8 880.108 600.6 873.068 614.04C866.028 627.48 852.268 634.2 831.788 634.2C815.788 634.2 804.588 630.04 798.188 621.72H796.908L793.708 631H751.788V425.88H805.228V481.24H806.508C813.548 476.547 822.614 474.2 833.708 474.2ZM827.948 583C828.801 579.16 829.334 575.427 829.548 571.8C829.761 568.173 829.868 561.347 829.868 551.32C829.868 541.08 829.121 533.293 827.628 527.96C826.134 522.413 823.041 519.64 818.348 519.64C813.868 519.64 809.388 520.92 804.908 523.48V589.72C808.961 591.64 812.801 592.6 816.428 592.6C820.268 592.6 822.934 591.96 824.427 590.68C826.134 589.187 827.308 586.627 827.948 583Z" fill="#FF6D7F"/>
<rect x="286" y="381" width="605" height="318" stroke="#FF6D7F" stroke-width="2"/>
<rect width="657" height="182" transform="translate(978 450)" fill="#D2E3FC"/>
<path d="M1025.14 632H983.948L1046.71 450.182H1096.25L1158.93 632H1117.74L1072.19 491.73H1070.77L1025.14 632ZM1022.57 560.533H1119.87V590.54H1022.57V560.533ZM1071.48 439.706C1063.91 439.706 1057.46 437.102 1052.13 431.893C1046.8 426.626 1044.14 420.323 1044.14 412.984C1044.14 408.071 1045.35 403.603 1047.78 399.578C1050.27 395.494 1053.58 392.269 1057.72 389.901C1061.87 387.475 1066.45 386.261 1071.48 386.261C1076.51 386.261 1081.1 387.475 1085.24 389.901C1089.39 392.269 1092.67 395.494 1095.1 399.578C1097.58 403.603 1098.83 408.071 1098.83 412.984C1098.83 417.896 1097.58 422.394 1095.1 426.478C1092.67 430.503 1089.39 433.728 1085.24 436.155C1081.1 438.522 1076.51 439.706 1071.48 439.706ZM1071.48 424.525C1074.8 424.525 1077.61 423.4 1079.92 421.151C1082.23 418.902 1083.38 416.15 1083.38 412.895C1083.38 409.699 1082.23 406.976 1079.92 404.727C1077.61 402.478 1074.8 401.354 1071.48 401.354C1068.17 401.413 1065.33 402.567 1062.96 404.816C1060.65 407.065 1059.5 409.788 1059.5 412.984C1059.5 416.18 1060.65 418.932 1062.96 421.24C1065.27 423.489 1068.11 424.584 1071.48 424.525ZM1218.99 634.575C1210.29 634.575 1202.54 633.065 1195.73 630.047C1188.92 626.969 1183.54 622.442 1179.57 616.464C1175.67 610.427 1173.71 602.91 1173.71 593.914C1173.71 586.338 1175.1 579.976 1177.88 574.827C1180.67 569.678 1184.45 565.535 1189.25 562.398C1194.04 559.261 1199.49 556.893 1205.58 555.295C1211.74 553.697 1218.19 552.573 1224.94 551.922C1232.87 551.093 1239.26 550.324 1244.11 549.614C1248.97 548.844 1252.49 547.72 1254.68 546.24C1256.87 544.76 1257.96 542.571 1257.96 539.67V539.138C1257.96 533.515 1256.19 529.165 1252.64 526.087C1249.14 523.01 1244.17 521.471 1237.72 521.471C1230.91 521.471 1225.5 522.98 1221.47 525.999C1217.45 528.958 1214.79 532.687 1213.48 537.185L1178.51 534.344C1180.28 526.058 1183.77 518.896 1188.98 512.859C1194.19 506.763 1200.91 502.088 1209.13 498.832C1217.42 495.518 1227.01 493.861 1237.9 493.861C1245.47 493.861 1252.72 494.749 1259.65 496.524C1266.63 498.3 1272.82 501.052 1278.2 504.781C1283.65 508.509 1287.94 513.303 1291.08 519.163C1294.21 524.963 1295.78 531.917 1295.78 540.026V632H1259.92V613.09H1258.85C1256.66 617.352 1253.73 621.11 1250.06 624.365C1246.39 627.561 1241.98 630.076 1236.83 631.911C1231.68 633.687 1225.74 634.575 1218.99 634.575ZM1229.82 608.474C1235.38 608.474 1240.3 607.379 1244.56 605.189C1248.82 602.94 1252.16 599.921 1254.59 596.134C1257.02 592.346 1258.23 588.055 1258.23 583.261V568.79C1257.05 569.559 1255.42 570.269 1253.35 570.92C1251.33 571.512 1249.06 572.075 1246.51 572.607C1243.97 573.081 1241.42 573.525 1238.88 573.939C1236.33 574.294 1234.02 574.62 1231.95 574.915C1227.51 575.567 1223.64 576.602 1220.32 578.023C1217.01 579.443 1214.43 581.367 1212.6 583.793C1210.76 586.161 1209.84 589.12 1209.84 592.671C1209.84 597.82 1211.71 601.756 1215.44 604.479C1219.23 607.142 1224.02 608.474 1229.82 608.474ZM1325.83 632V450.182H1398.63C1412.01 450.182 1423.16 452.165 1432.1 456.13C1441.04 460.095 1447.76 465.6 1452.25 472.643C1456.75 479.627 1459 487.676 1459 496.79C1459 503.893 1457.58 510.137 1454.74 515.523C1451.9 520.849 1447.99 525.229 1443.02 528.662C1438.11 532.036 1432.49 534.433 1426.15 535.853V537.629C1433.08 537.924 1439.56 539.878 1445.6 543.488C1451.69 547.098 1456.63 552.159 1460.42 558.669C1464.21 565.12 1466.1 572.814 1466.1 581.751C1466.1 591.399 1463.71 600.01 1458.91 607.586C1454.18 615.103 1447.16 621.051 1437.87 625.43C1428.58 629.81 1417.13 632 1403.51 632H1325.83ZM1364.27 600.572H1395.61C1406.33 600.572 1414.14 598.531 1419.05 594.447C1423.96 590.304 1426.42 584.799 1426.42 577.934C1426.42 572.903 1425.21 568.464 1422.78 564.617C1420.35 560.77 1416.89 557.752 1412.39 555.562C1407.95 553.372 1402.66 552.277 1396.5 552.277H1364.27V600.572ZM1364.27 526.265H1392.77C1398.04 526.265 1402.72 525.348 1406.8 523.513C1410.94 521.619 1414.2 518.955 1416.57 515.523C1418.99 512.09 1420.21 507.977 1420.21 503.183C1420.21 496.613 1417.87 491.316 1413.19 487.291C1408.58 483.267 1402.01 481.254 1393.48 481.254H1364.27V526.265ZM1491.12 632V450.182H1528.94V518.541H1530.09C1531.75 514.872 1534.14 511.143 1537.28 507.355C1540.48 503.508 1544.62 500.312 1549.71 497.767C1554.86 495.163 1561.25 493.861 1568.89 493.861C1578.83 493.861 1588 496.465 1596.41 501.673C1604.81 506.822 1611.53 514.605 1616.56 525.022C1621.59 535.379 1624.11 548.371 1624.11 563.996C1624.11 579.206 1621.65 592.05 1616.74 602.526C1611.89 612.942 1605.26 620.844 1596.85 626.229C1588.51 631.556 1579.16 634.219 1568.8 634.219C1561.46 634.219 1555.22 633.006 1550.07 630.58C1544.98 628.153 1540.8 625.105 1537.55 621.435C1534.29 617.707 1531.81 613.948 1530.09 610.161H1528.4V632H1491.12ZM1528.14 563.818C1528.14 571.927 1529.26 578.999 1531.51 585.036C1533.76 591.073 1537.02 595.778 1541.28 599.152C1545.54 602.466 1550.72 604.124 1556.81 604.124C1562.97 604.124 1568.18 602.437 1572.44 599.063C1576.7 595.63 1579.93 590.896 1582.11 584.859C1584.36 578.763 1585.49 571.749 1585.49 563.818C1585.49 555.946 1584.39 549.022 1582.2 543.044C1580.01 537.066 1576.79 532.391 1572.53 529.017C1568.27 525.643 1563.03 523.957 1556.81 523.957C1550.66 523.957 1545.45 525.584 1541.19 528.839C1536.99 532.095 1533.76 536.711 1531.51 542.689C1529.26 548.667 1528.14 555.71 1528.14 563.818Z" fill="#1A73E8"/>
<rect x="979" y="417" width="655" height="248" stroke="#1A73E8" stroke-width="2"/>
</svg>
